X: 4847
T: Bradley's Mystery
R: hornpipe
M: 4/4
K: Dmajor
|:(3A,B,C|DCDE =FEFA|_BABd cdeg|fdgd af.e/f/e/d/|cedB A2 (3A_AG|
FG (3AGF GABA|^GBed cba=g|(3fga fd Bgec|d2 dc d2:|
|:Ade=f|=fefd AfdA|_BABG D2 GA|_BABG E=C=cB|AG (3=FGA =c2 (3cde|
=fefd A2 ^fg|ag (3fga g2 ag|(3fga fd Bgec|d2 dc d2:|

